icons/donut-chart-fill.svg

<svg xmlns="http://www.w3.org/2000/svg" width="24" height="24" fill="none"><g clip-path="url(#a)"><g><path fill="#121212" d="M11 2.04995V5.06995C7.608 5.55695 5 8.47495 5 12C5 15.866 8.134 19 12 19C13.572 19 15.024 18.482 16.192 17.606L18.329 19.743C16.605 21.153 14.4 22 12 22C6.477 22 2 17.523 2 12C2 6.81495 5.947 2.55095 11 2.04995ZM21.95 13C21.75 15.011 20.956 16.8469 19.743 18.3279L17.606 16.1919C18.293 15.2759 18.759 14.186 18.929 13H21.951H21.95ZM13.002 2.04995C17.726 2.51895 21.482 6.27595 21.952 11H18.93C18.492 7.93495 16.067 5.50995 13.002 5.07095V2.04895V2.04995Z"/></g></g><defs><clipPath id="a"><rect width="24" height="24" fill="white"/></clipPath></defs></svg>

<svg width="24" height="24" fill="none" xmlns="http://www.w3.org/2000/svg"><g clip-path="url(#a)"><path d="M11 2.05v3.02a7 7 0 1 0 5.192 12.536l2.137 2.137A9.966 9.966 0 0 1 12 22C6.477 22 2 17.523 2 12c0-5.185 3.947-9.45 9-9.95ZM21.95 13a9.947 9.947 0 0 1-2.207 5.328l-2.137-2.136A6.958 6.958 0 0 0 18.929 13h3.022-.001ZM13.002 2.05a10.004 10.004 0 0 1 8.95 8.95H18.93a7.005 7.005 0 0 0-5.928-5.93V2.05v.001Z" /></g><defs><clipPath id="a"><path fill="#fff" d="M0 0h24v24H0z"/></clipPath></defs></svg>
